!!!Melodie: Was Gott tut, das ist wohlgetan, es bleibt gerecht
!!!Typ: Lied
**kern	**silbe	**silbe	**silbe	**silbe	**silbe	**silbe	**silbe	**silbe
*clefG2	*lang:DE	*lang:DE	*lang:DE	*lang:DE	*lang:DE	*lang:DE	*lang:DE	*lang:DE
*M4/4	*	*	*	*	*	*	*	*
*met(c|)	*	*	*	*	*	*	*	*
4d	Wir	wir	Wir	Wir	Wir	Du	Wir	Wir
=	=	=	=	=	=	=	=	=
4g	war#	wis#	war#	trös#	war#	bist	war#	freu#
4a	#ten	#sen	#ten	#ten	#ten	uns	#ten	#en
4b	dein,	dich	dei#	uns,	dein,	zwar	dein,	uns
4cc	o	auf	#ner	dass	du	im	du	schon
=	=	=	=	=	=	=	=	=
4.dd	Got#	dei#	mit	du	hast	Gei#	kommst	ü#
8a	#tes	#nem	Ge#	die	uns	#ste	ge#	#ber
4g	Sohn	Thron,	#duld	Schuld	ja	nah,	#wiss,	dies,
4ee	und	und	in	am	das	doch	die	was
=	=	=	=	=	=	=	=	=
4dd	lie#	nen#	un#	Kreuz	Herz	sollst	Zeit	wir
4cc	#ben	#nen	#ser'n	hast	schon	du	ist	erst
8Lb	dein	uns	Lei#	ab#	hin#	sicht#	bald	si#
8Ja	|	|	|	|	|	|	|	|
4b	Er#	die	#dens#	#ge#	#ge#	#bar	ver#	#cher
=	=	=	=	=	=	=	=	=
2a	#schei#	dei#	#ta#	#tra#	#nom#	kom#	#lau#	hof#
4g	#nen;	#nen.	#gen.	#gen;	#men.	#men;	#fen.	#fen.
=:|	=	=	=	=	=	=	=	=
4dd	.	Wer	.	so	.	da	.	Was
=	=	=	=	=	=	=	=	=
4ee	.	an	.	kö#	.	willst	.	wird
4ee	.	dich	.	#nen	.	uns	.	ge#
4a	.	glaubt,	.	wir	.	du	.	#sche’n,
4a	.	er#	.	nun	.	bei	.	wenn
=	=	=	=	=	=	=	=	=
4dd	.	#hebt	.	gern	.	dir	.	wir
4dd	.	sein	.	mit	.	auch	.	dich
4g	.	Haupt,	.	dir	.	Ruh’,	.	seh’n?
4b	.	und	.	uns	.	bei	.	Wenn
=	=	=	=	=	=	=	=	=
4a	.	sie#	.	auch	.	dir	.	du
4g	.	#het	.	zum	.	auch	.	uns
8Lf#	.	dir	.	Kreuz	.	Freu#	.	heim
8Je	.	|	.	|	.	|	.	|
4f#	.	ent#	.	be#	.	#de	.	wirst
=	=	=	=	=	=	=	=	=
2e	.	#ge#	.	#que#	.	ge#	.	bring#
4d	.	#gen;	.	#men,	.	#ben,	.	#en?
4dd	.	du	.	bis	.	bei	.	Wenn
=	=	=	=	=	=	=	=	=
4cc	.	kommst	.	du	.	dir	.	wir
4b	.	uns	.	es	.	ein	.	dir
4a	.	ja	.	weg	.	herr#	.	e#
4b	.	zum	.	wirst	.	#lich'	.	#wig
=	=	=	=	=	=	=	=	=
2a	.	Se#	.	neh#	.	Le#	.	sing#
4g	.	#gen.	.	#men.	.	#ben.	.	#en?
==	==	==	==	==	==	==	==	==
*-	*-	*-	*-	*-	*-	*-	*-	*-
